assets/icons/qvision/leak_remove.svg

<svg xmlns="http://www.w3.org/2000/svg" height="24" viewBox="0 0 24 24" width="24"><path d="M0 0h24v24H0z" fill="none"/><path d="M10 3H8c0 .37-.04.72-.12 1.06l1.59 1.59C9.81 4.84 10 3.94 10 3zM3 4.27l2.84 2.84C5.03 7.67 4.06 8 3 8v2c1.61 0 3.09-.55 4.27-1.46L8.7 9.97C7.14 11.24 5.16 12 3 12v2c2.71 0 5.19-.99 7.11-2.62l2.5 2.5C10.99 15.81 10 18.29 10 21h2c0-2.16.76-4.14 2.03-5.69l1.43 1.43C14.55 17.91 14 19.39 14 21h2c0-1.06.33-2.03.89-2.84L19.73 21 21 19.73 4.27 3 3 4.27zM14 3h-2c0 1.5-.37 2.91-1.02 4.16l1.46 1.46C13.42 6.98 14 5.06 14 3zm5.94 13.12c.34-.08.69-.12 1.06-.12v-2c-.94 0-1.84.19-2.66.52l1.6 1.6zm-4.56-4.56l1.46 1.46C18.09 12.37 19.5 12 21 12v-2c-2.06 0-3.98.58-5.62 1.56z"/></svg>

<svg width="24" height="24" viewBox="0 0 24 24" fill="none" xmlns="http://www.w3.org/2000/svg">
<g clip-path="url(#clip0_147_3539)">
<path d="M10 3H8C8 3.37 7.96 3.72 7.88 4.06L9.47 5.65C9.81 4.84 10 3.94 10 3ZM3 4.27L5.84 7.11C5.03 7.67 4.06 8 3 8V10C4.61 10 6.09 9.45 7.27 8.54L8.7 9.97C7.14 11.24 5.16 12 3 12V14C5.71 14 8.19 13.01 10.11 11.38L12.61 13.88C10.99 15.81 10 18.29 10 21H12C12 18.84 12.76 16.86 14.03 15.31L15.46 16.74C14.55 17.91 14 19.39 14 21H16C16 19.94 16.33 18.97 16.89 18.16L19.73 21L21 19.73L4.27 3L3 4.27ZM14 3H12C12 4.5 11.63 5.91 10.98 7.16L12.44 8.62C13.42 6.98 14 5.06 14 3ZM19.94 16.12C20.28 16.04 20.63 16 21 16V14C20.06 14 19.16 14.19 18.34 14.52L19.94 16.12ZM15.38 11.56L16.84 13.02C18.09 12.37 19.5 12 21 12V10C18.94 10 17.02 10.58 15.38 11.56Z" fill="#323232"/>
</g>
<defs>
<clipPath id="clip0_147_3539">
<rect width="24" height="24" fill="white"/>
</clipPath>
</defs>
</svg>
